src/_assets/icons/Vote.svg

<svg width="25" height="24" viewBox="0 0 25 24" fill="none" xmlns="http://www.w3.org/2000/svg">
<path d="M18.7349 17.8362C18.5635 17.8362 18.4218 17.7801 18.3098 17.6681C18.1977 17.556 18.1417 17.4143 18.1417 17.2429V14.3955C18.1417 13.6836 17.8912 13.0772 17.3903 12.5763C16.8893 12.0753 16.2829 11.8249 15.5711 11.8249H7.34507L9.99479 14.4746C10.1003 14.58 10.153 14.7119 10.153 14.8701C10.153 15.0282 10.0937 15.1667 9.97502 15.2853C9.85637 15.404 9.71796 15.4633 9.55976 15.4633C9.40157 15.4633 9.26315 15.404 9.14451 15.2853L5.50609 11.6469C5.44018 11.581 5.39404 11.5151 5.36767 11.4492C5.34131 11.3832 5.32812 11.3107 5.32812 11.2316C5.32812 11.1525 5.34131 11.08 5.36767 11.0141C5.39404 10.9482 5.44018 10.8823 5.50609 10.8164L9.16428 7.15819C9.26974 7.05273 9.40157 7 9.55976 7C9.71796 7 9.85637 7.05932 9.97502 7.17797C10.0937 7.29661 10.153 7.43503 10.153 7.59322C10.153 7.75141 10.0937 7.88983 9.97502 8.00847L7.34507 10.6384H15.5711C16.5993 10.6384 17.4826 11.0042 18.2208 11.7359C18.959 12.4675 19.3281 13.354 19.3281 14.3955V17.2429C19.3281 17.4143 19.2721 17.556 19.16 17.6681C19.048 17.7801 18.9063 17.8362 18.7349 17.8362Z" fill="#485F7D" fill-opacity="0.8"/>
</svg>

<svg xmlns="http://www.w3.org/2000/svg" width="25" height="24" fill="none"><path fill="#485F7D" fill-opacity=".8" d="M18.735 17.836a.576.576 0 01-.593-.593v-2.847q0-1.068-.752-1.82a2.48 2.48 0 00-1.819-.751H7.345l2.65 2.65a.54.54 0 01.158.395q0 .237-.178.415a.57.57 0 01-.415.178.57.57 0 01-.415-.178l-3.639-3.638a.6.6 0 01-.138-.198.6.6 0 01-.04-.217.6.6 0 01.04-.218.6.6 0 01.138-.198l3.658-3.658A.54.54 0 019.56 7a.57.57 0 01.415.178.57.57 0 01.178.415q0 .237-.178.415l-2.63 2.63h8.226q1.542 0 2.65 1.098a3.6 3.6 0 011.107 2.66v2.847a.576.576 0 01-.593.593"/></svg>
